src/assets/selectIconsSpells/raggio_3.svg

<svg xmlns="http://www.w3.org/2000/svg" viewBox="0 0 512 512"><path d="M0 0h512v512H0z"/><path fill="#fff" d="M97.53 20.705v.002l6.425 82.932-86.434-6.427v53.73l207.912 74.754L151.26 20.705H97.53zm-80.01.002v31.537L72.42 72.102 53.73 20.707H17.52zM237.366 45.21l15.754 207.743L45.374 237.2l300.363 108.374L237.368 45.21h-.003zm117.342 171.927l.002.008v-.008h-.003zm.002.008l11.272 148.67-148.68-11.272 214.968 77.562-77.56-214.96zm87.493 137.65l.002.008v-.008h-.002zm.002.008l7.158 94.396-94.404-7.16 136.49 49.247-49.245-136.484z"/></svg>

<?xml version="1.0" encoding="UTF-8" standalone="no"?>
<!DOCTYPE svg PUBLIC "-//W3C//DTD SVG 1.1//EN" "http://www.w3.org/Graphics/SVG/1.1/DTD/svg11.dtd">
<svg width="100%" height="100%" viewBox="0 0 512 512" version="1.1" xmlns="http://www.w3.org/2000/svg" xmlns:xlink="http://www.w3.org/1999/xlink" xml:space="preserve" xmlns:serif="http://www.serif.com/" style="fill-rule:evenodd;clip-rule:evenodd;stroke-linejoin:round;stroke-miterlimit:2;">
    <rect x="0" y="0" width="512" height="512" style="fill-rule:nonzero;"/>
    <path d="M97.53,20.705L97.53,20.707L103.955,103.639L17.521,97.212L17.521,150.942L225.433,225.696L151.26,20.705L97.53,20.705ZM17.52,20.707L17.52,52.244L72.42,72.102L53.73,20.707L17.52,20.707ZM237.366,45.21L253.12,252.953L45.374,237.2L345.737,345.574L237.368,45.21L237.365,45.21L237.366,45.21ZM354.708,217.137L354.71,217.145L354.71,217.137L354.707,217.137L354.708,217.137ZM354.71,217.145L365.982,365.815L217.302,354.543L432.27,432.105L354.71,217.145ZM442.203,354.795L442.205,354.803L442.205,354.795L442.203,354.795ZM442.205,354.803L449.363,449.199L354.959,442.039L491.449,491.286L442.204,354.802L442.205,354.803Z" style="fill:rgb(81,240,224);fill-rule:nonzero;"/>
</svg>
